src/img/shopping-cart.svg

<svg width="30" height="31" viewBox="0 0 30 31" fill="none" xmlns="http://www.w3.org/2000/svg">
<g clip-path="url(#clip0_628_441)">
<path fill-rule="evenodd" clip-rule="evenodd" d="M11.25 26.4375C11.0774 26.4375 10.9375 26.5774 10.9375 26.75C10.9375 26.9226 11.0774 27.0625 11.25 27.0625C11.4226 27.0625 11.5625 26.9226 11.5625 26.75C11.5625 26.5774 11.4226 26.4375 11.25 26.4375ZM9.0625 26.75C9.0625 25.5419 10.0419 24.5625 11.25 24.5625C12.4581 24.5625 13.4375 25.5419 13.4375 26.75C13.4375 27.9581 12.4581 28.9375 11.25 28.9375C10.0419 28.9375 9.0625 27.9581 9.0625 26.75Z" fill="#1E2E36"/>
<path fill-rule="evenodd" clip-rule="evenodd" d="M25 26.4375C24.8274 26.4375 24.6875 26.5774 24.6875 26.75C24.6875 26.9226 24.8274 27.0625 25 27.0625C25.1726 27.0625 25.3125 26.9226 25.3125 26.75C25.3125 26.5774 25.1726 26.4375 25 26.4375ZM22.8125 26.75C22.8125 25.5419 23.7919 24.5625 25 24.5625C26.2081 24.5625 27.1875 25.5419 27.1875 26.75C27.1875 27.9581 26.2081 28.9375 25 28.9375C23.7919 28.9375 22.8125 27.9581 22.8125 26.75Z" fill="#1E2E36"/>
<path fill-rule="evenodd" clip-rule="evenodd" d="M0.3125 1.75C0.3125 1.23223 0.732233 0.8125 1.25 0.8125H6.25C6.69684 0.8125 7.08158 1.12786 7.16926 1.56601L8.26939 7.0625H28.75C29.0294 7.0625 29.2943 7.18713 29.4724 7.4024C29.6505 7.61768 29.7233 7.90116 29.6709 8.17563L27.6696 18.6701C27.5124 19.4615 27.0819 20.1723 26.4535 20.6781C25.8275 21.182 25.0449 21.4506 24.2418 21.4375H12.1083C11.3051 21.4506 10.5225 21.182 9.89656 20.6781C9.26841 20.1725 8.83804 19.4621 8.68069 18.6713L6.59069 8.2291C6.5834 8.20006 6.57746 8.17049 6.57295 8.14044L5.48155 2.6875H1.25C0.732233 2.6875 0.3125 2.26776 0.3125 1.75ZM8.64466 8.9375L10.5195 18.3049C10.591 18.6645 10.7867 18.9876 11.0723 19.2176C11.358 19.4475 11.7154 19.5698 12.082 19.5626L12.1 19.5625H24.25L24.268 19.5626C24.6346 19.5698 24.992 19.4475 25.2778 19.2176C25.5625 18.9883 25.7579 18.6664 25.8299 18.3079L25.8305 18.3049L27.6169 8.9375H8.64466Z" fill="#1E2E36"/>
</g>
<defs>
<clipPath id="clip0_628_441">
<rect width="30" height="30" fill="white" transform="translate(0 0.5)"/>
</clipPath>
</defs>
</svg>

<svg width="30" height="31" fill="none" xmlns="http://www.w3.org/2000/svg"><g clip-path="url(#clip0_628_441)" fill-rule="evenodd" clip-rule="evenodd" fill="#1E2E36"><path d="M11.25 26.438a.312.312 0 100 .624.312.312 0 000-.625zm-2.188.312a2.188 2.188 0 114.376 0 2.188 2.188 0 01-4.376 0zM25 26.438a.312.312 0 100 .624.312.312 0 000-.625zm-2.188.312a2.188 2.188 0 114.376 0 2.188 2.188 0 01-4.375 0zM.313 1.75c0-.518.42-.938.937-.938h5c.447 0 .832.316.92.754l1.1 5.496h20.48a.938.938 0 01.92 1.114l-2 10.494a3.437 3.437 0 01-3.428 2.767H12.108a3.438 3.438 0 01-3.427-2.766L6.59 8.23a.932.932 0 01-.018-.089l-1.09-5.454H1.25a.938.938 0 01-.938-.937zm8.332 7.188l1.875 9.367a1.563 1.563 0 001.562 1.258h12.186a1.562 1.562 0 001.562-1.255v-.003l1.787-9.367H8.645z"/></g><defs><clipPath id="clip0_628_441"><path fill="#fff" transform="translate(0 .5)" d="M0 0h30v30H0z"/></clipPath></defs></svg>
